movie-open-remove.svg

<svg fill="currentColor" viewBox="0 0 24 24"><path d="M14.75 7.46 12 3.93l1.97-.39 2.74 3.53zm-2.94.59L9.07 4.5l-1.97.41 2.75 3.53zm9.81-1.95-.78-3.92-3.93.78 2.74 3.54zM19 13c1.1 0 2.12.3 3 .81V10H2v10a2 2 0 0 0 2 2h9.81c-.51-.88-.81-1.9-.81-3 0-3.31 2.69-6 6-6M4.16 5.5l-.98.19a2.01 2.01 0 0 0-1.57 2.35L2 10l4.9-.97zm18.38 11.38-1.42-1.41L19 17.59l-2.12-2.12-1.41 1.41L17.59 19l-2.12 2.12 1.41 1.42L19 20.41l2.12 2.13 1.42-1.42L20.41 19z"/></svg>

<svg  viewBox="0 0 24 24" fill="currentColor"><path  d="M14.75 7.46L12 3.93L13.97 3.54L16.71 7.07L14.75 7.46M11.81 8.05L9.07 4.5L7.1 4.91L9.85 8.44L11.81 8.05M21.62 6.1L20.84 2.18L16.91 2.96L19.65 6.5L21.62 6.1M19 13C20.1 13 21.12 13.3 22 13.81V10H2V20C2 21.11 2.9 22 4 22H13.81C13.3 21.12 13 20.1 13 19C13 15.69 15.69 13 19 13M4.16 5.5L3.18 5.69C2.1 5.91 1.4 6.96 1.61 8.04L2 10L6.9 9.03L4.16 5.5M22.54 16.88L21.12 15.47L19 17.59L16.88 15.47L15.47 16.88L17.59 19L15.47 21.12L16.88 22.54L19 20.41L21.12 22.54L22.54 21.12L20.41 19L22.54 16.88Z"/></svg>
